COLOR/action 16/16/url-copy.svg

<svg height="16" width="16" xmlns="http://www.w3.org/2000/svg"><circle cx="8" cy="8" fill="#1a7fd4" r="8"/><g fill="#fff"><path d="m5 5c-1.662 0-3 1.338-3 3s1.338 3 3 3h2v-1.0214844c-.2506942-.0002319-.5013687.0019209-.7519531.0019532-.55551-.0154982-1.1151033.0223622-1.65625-.0351563-.8262604-.16591-1.502159-.9002273-1.5625-1.7460937-.1266803-.9632805.575525-1.9350019 1.5234375-2.1328126.8185476-.0459731 1.6281955-.0386756 2.4472656-.0429687v-1.0234375zm4 0v1.0253906c.2747645.0010641.5495599-.0001735.8242188.0019532.5492762.0161042 1.1084022-.0117727 1.6640622.0488281.903278.2081919 1.564217 1.1153582 1.490235 2.0390625-.026233.9021084-.754614 1.6827692-1.626954 1.8535156-.782835.0092781-1.567438.0051176-2.351562.0058594v1.0253906h2c1.662 0 3-1.338 3-3s-1.338-3-3-3z"/><rect height="2" rx="1" width="6" x="5" y="7"/><path d="m8 0a8 8 0 0 0 -8 8 8 8 0 0 0 .00976563.2929688 8 8 0 0 1 7.99023437-7.7929688 8 8 0 0 1 7.990234 7.7070312 8 8 0 0 0 .009766-.2070312 8 8 0 0 0 -8-8z" opacity=".3"/></g><path d="m8.0000195 16a8 8 0 0 0 7.9999995-8.0000004 8 8 0 0 0 -.0098-.292968 8 8 0 0 1 -7.9902345 7.7929684 8 8 0 0 1 -7.990234-7.7070314 8 8 0 0 0 -.00977.207031 8 8 0 0 0 8 8.0000004z" opacity=".2"/></svg>

<?xml version="1.0" encoding="UTF-8" standalone="no"?>
<!-- Created with Inkscape (http://www.inkscape.org/) -->

<svg
   xmlns:dc="http://purl.org/dc/elements/1.1/"
   xmlns:cc="http://creativecommons.org/ns#"
   xmlns:rdf="http://www.w3.org/1999/02/22-rdf-syntax-ns#"
   xmlns:svg="http://www.w3.org/2000/svg"
   xmlns="http://www.w3.org/2000/svg"
   xmlns:xlink="http://www.w3.org/1999/xlink"
   xmlns:sodipodi="http://sodipodi.sourceforge.net/DTD/sodipodi-0.dtd"
   xmlns:inkscape="http://www.inkscape.org/namespaces/inkscape"
   version="1.1"
   width="16"
   height="16"
   id="svg3916"
   sodipodi:docname="url-copy.svg"
   inkscape:version="0.92.4 (5da689c313, 2019-01-14)">
  <metadata
     id="metadata44">
    <rdf:RDF>
      <cc:Work
         rdf:about="">
        <dc:format>image/svg+xml</dc:format>
        <dc:type
           rdf:resource="http://purl.org/dc/dcmitype/StillImage" />
        <dc:title />
      </cc:Work>
    </rdf:RDF>
  </metadata>
  <sodipodi:namedview
     pagecolor="#ffffff"
     bordercolor="#666666"
     borderopacity="1"
     objecttolerance="10"
     gridtolerance="10"
     guidetolerance="10"
     inkscape:pageopacity="0"
     inkscape:pageshadow="2"
     inkscape:window-width="1920"
     inkscape:window-height="1016"
     id="namedview42"
     showgrid="false"
     inkscape:zoom="52.4375"
     inkscape:cx="8"
     inkscape:cy="8"
     inkscape:window-x="0"
     inkscape:window-y="27"
     inkscape:window-maximized="1"
     inkscape:current-layer="svg3916">
    <inkscape:grid
       type="xygrid"
       id="grid85847" />
  </sodipodi:namedview>
  <defs
     id="defs3918">
    <linearGradient
       x1="24.103895"
       y1="15.168831"
       x2="24.103895"
       y2="32.485161"
       id="linearGradient2536"
       xlink:href="#linearGradient3945"
       gradientUnits="userSpaceOnUse"
       gradientTransform="matrix(0.3280315,0,0,0.3257096,24.444958,-10.722212)" />
    <linearGradient
       id="linearGradient3945">
      <stop
         id="stop3947"
         style="stop-color:#ecf5b6;stop-opacity:1"
         offset="0" />
      <stop
         id="stop3949"
         style="stop-color:#9fba48;stop-opacity:1"
         offset="1" />
    </linearGradient>
    <linearGradient
       x1="18.03083"
       y1="16.407909"
       x2="20.054544"
       y2="24.627615"
       id="linearGradient2929"
       xlink:href="#linearGradient8265-821-176-38-919-66-249"
       gradientUnits="userSpaceOnUse"
       gradientTransform="matrix(0.2966887,0,0,0.3520695,1.8805021,2.118629)" />
    <linearGradient
       id="linearGradient8265-821-176-38-919-66-249">
      <stop
         id="stop2687"
         style="stop-color:#ffffff;stop-opacity:0.2"
         offset="0" />
      <stop
         id="stop2689"
         style="stop-color:#ffffff;stop-opacity:0"
         offset="1" />
    </linearGradient>
    <linearGradient
       x1="126.69791"
       y1="58.583481"
       x2="169.22964"
       y2="238.3999"
       id="linearGradient2932"
       xlink:href="#linearGradient2610"
       gradientUnits="userSpaceOnUse"
       gradientTransform="matrix(0.05489342,0.01385132,0.00257263,0.05248166,-0.71280094,-0.2674109)" />
    <linearGradient
       id="linearGradient2610">
      <stop
         id="stop2612"
         style="stop-color:#f0c178;stop-opacity:1"
         offset="0" />
      <stop
         id="stop2614"
         style="stop-color:#e18941;stop-opacity:1"
         offset="0.5" />
      <stop
         id="stop2616"
         style="stop-color:#ec4f18;stop-opacity:1"
         offset="1" />
    </linearGradient>
    <linearGradient
       x1="10.318256"
       y1="14.992862"
       x2="4.1760364"
       y2="4.0514131"
       id="linearGradient2934"
       xlink:href="#linearGradient2603"
       gradientUnits="userSpaceOnUse"
       gradientTransform="matrix(1.0083043,0,0,1.0006232,-8.2398292e-4,-0.0066209)" />
    <linearGradient
       id="linearGradient2603">
      <stop
         id="stop2605"
         style="stop-color:#bb2b12;stop-opacity:1"
         offset="0" />
      <stop
         id="stop2607"
         style="stop-color:#cd7233;stop-opacity:1"
         offset="1" />
    </linearGradient>
    <linearGradient
       x1="302.85715"
       y1="366.64789"
       x2="302.85715"
       y2="609.50507"
       id="linearGradient2915"
       xlink:href="#linearGradient5048"
       gradientUnits="userSpaceOnUse"
       gradientTransform="matrix(2.774389,0,0,1.969706,-1892.179,-872.8854)" />
    <linearGradient
       id="linearGradient5048">
      <stop
         id="stop5050"
         style="stop-color:#000000;stop-opacity:0"
         offset="0" />
      <stop
         id="stop5056"
         style="stop-color:#000000;stop-opacity:1"
         offset="0.5" />
      <stop
         id="stop5052"
         style="stop-color:#000000;stop-opacity:0"
         offset="1" />
    </linearGradient>
    <radialGradient
       cx="605.71429"
       cy="486.64789"
       r="117.14286"
       fx="605.71429"
       fy="486.64789"
       id="radialGradient2917"
       xlink:href="#linearGradient5060"
       gradientUnits="userSpaceOnUse"
       gradientTransform="matrix(2.774389,0,0,1.969706,-1891.633,-872.8854)" />
    <linearGradient
       id="linearGradient5060">
      <stop
         id="stop5062"
         style="stop-color:#000000;stop-opacity:1"
         offset="0" />
      <stop
         id="stop5064"
         style="stop-color:#000000;stop-opacity:0"
         offset="1" />
    </linearGradient>
    <radialGradient
       cx="605.71429"
       cy="486.64789"
       r="117.14286"
       fx="605.71429"
       fy="486.64789"
       id="radialGradient2919"
       xlink:href="#linearGradient5060"
       gradientUnits="userSpaceOnUse"
       gradientTransform="matrix(-2.774389,0,0,1.969706,112.7623,-872.8854)" />
    <clipPath
       clipPathUnits="userSpaceOnUse"
       id="clipPath983">
      <path
         sodipodi:nodetypes="scccssscsss"
         inkscape:connector-curvature="0"
         id="path985"
         d="m 325.09646,237 c -2.80769,0 -3.10979,0.28839 -3.09603,3.10176 V 244 v 3.89824 c -0.0138,2.81337 0.28834,3.10176 3.09603,3.10176 h 5.8075 C 333.71166,251 334,250.71165 334,247.89824 V 244 240.10176 C 334,237.28836 333.71165,237 330.90396,237 Z"
         style="color:#000000;display:inline;overflow:visible;visibility:visible;opacity:1;fill:#46a926;fill-opacity:1;fill-rule:nonzero;stroke:none;stroke-width:2;stroke-miterlimit:4;stroke-dasharray:none;stroke-opacity:1;marker:none;enable-background:accumulate" />
    </clipPath>
    <clipPath
       clipPathUnits="userSpaceOnUse"
       id="clipPath983-3">
      <path
         sodipodi:nodetypes="scccssscsss"
         inkscape:connector-curvature="0"
         id="path985-6"
         d="m 325.09646,237 c -2.80769,0 -3.10979,0.28839 -3.09603,3.10176 V 244 v 3.89824 c -0.0138,2.81337 0.28834,3.10176 3.09603,3.10176 h 5.8075 C 333.71166,251 334,250.71165 334,247.89824 V 244 240.10176 C 334,237.28836 333.71165,237 330.90396,237 Z"
         style="color:#000000;display:inline;overflow:visible;visibility:visible;opacity:1;fill:#46a926;fill-opacity:1;fill-rule:nonzero;stroke:none;stroke-width:2;stroke-miterlimit:4;stroke-dasharray:none;stroke-opacity:1;marker:none;enable-background:accumulate" />
    </clipPath>
    <clipPath
       clipPathUnits="userSpaceOnUse"
       id="clipPath1237">
      <path
         style="opacity:1;fill:url(#linearGradient1241);fill-opacity:1;stroke:none;stroke-width:2;stroke-linecap:round;stroke-linejoin:round;stroke-miterlimit:4;stroke-dasharray:none;stroke-dashoffset:0;stroke-opacity:1"
         d="M 351.93164,62.5 C 365.55326,62.5 367.5,64.44187 367.5,78.05078 V 89.94922 C 367.5,103.55808 365.55326,105.5 351.93164,105.5 H 336.06836 C 322.44674,105.5 320.5,103.55808 320.5,89.94922 V 78.05078 C 320.5,64.44187 322.44674,62.5 336.06836,62.5 Z"
         id="path1239"
         inkscape:connector-curvature="0"
         sodipodi:nodetypes="sssssssss" />
    </clipPath>
  </defs>
  <circle
     style="display:inline;opacity:1;fill:#1a7fd4;fill-opacity:1;stroke:none;stroke-width:0.62313455;stroke-linecap:round;stroke-linejoin:round;stroke-miterlimit:4;stroke-dasharray:none;stroke-opacity:1;enable-background:new"
     id="path9498-6-1"
     cx="8"
     cy="8"
     r="8" />
  <path
     style="opacity:1;vector-effect:none;fill:#ffffff;fill-opacity:1;stroke:none;stroke-width:2;stroke-linecap:round;stroke-linejoin:bevel;stroke-miterlimit:4;stroke-dasharray:none;stroke-dashoffset:0;stroke-opacity:1"
     d="M 5 5 C 3.338 5 2 6.338 2 8 C 2 9.662 3.338 11 5 11 L 7 11 L 7 9.9785156 C 6.7493058 9.9782837 6.4986313 9.9804365 6.2480469 9.9804688 C 5.6925369 9.9649706 5.1329436 10.002831 4.5917969 9.9453125 C 3.7655365 9.7794025 3.0896379 9.0450852 3.0292969 8.1992188 C 2.9026166 7.2359383 3.6048219 6.2642169 4.5527344 6.0664062 C 5.371282 6.0204331 6.1809299 6.0277306 7 6.0234375 L 7 5 L 5 5 z M 9 5 L 9 6.0253906 C 9.2747645 6.0264547 9.5495599 6.0252171 9.8242188 6.0273438 C 10.373495 6.043448 10.932621 6.0155711 11.488281 6.0761719 C 12.391559 6.2843638 13.052498 7.1915301 12.978516 8.1152344 C 12.952283 9.0173428 12.223902 9.7980036 11.351562 9.96875 C 10.568727 9.9780281 9.784124 9.9738676 9 9.9746094 L 9 11 L 11 11 C 12.662 11 14 9.662 14 8 C 14 6.338 12.662 5 11 5 L 9 5 z "
     id="rect85859" />
  <rect
     style="opacity:1;vector-effect:none;fill:#ffffff;fill-opacity:1;stroke:none;stroke-width:2;stroke-linecap:round;stroke-linejoin:bevel;stroke-miterlimit:4;stroke-dasharray:none;stroke-dashoffset:0;stroke-opacity:1"
     id="rect85867"
     width="6"
     height="2"
     x="5"
     y="7"
     rx="1"
     ry="1" />
  <path
     style="display:inline;opacity:0.3;fill:#ffffff;fill-opacity:1;stroke:none;stroke-width:0.62313455;stroke-linecap:round;stroke-linejoin:round;stroke-miterlimit:4;stroke-dasharray:none;stroke-opacity:1;enable-background:new"
     d="M 8 0 A 8 8 0 0 0 0 8 A 8 8 0 0 0 0.009765625 8.2929688 A 8 8 0 0 1 8 0.5 A 8 8 0 0 1 15.990234 8.2070312 A 8 8 0 0 0 16 8 A 8 8 0 0 0 8 0 z "
     id="circle848" />
  <path
     id="path853"
     d="M 8.0000195,16 A 8,8 0 0 0 16.000019,7.9999996 8,8 0 0 0 15.990219,7.7070316 8,8 0 0 1 7.9999845,15.5 8,8 0 0 1 0.0097505,7.7929686 a 8,8 0 0 0 -0.00977,0.207031 8,8 0 0 0 8,8.0000004 z"
     style="display:inline;opacity:0.2;fill:#000000;fill-opacity:1;stroke:none;stroke-width:0.62313455;stroke-linecap:round;stroke-linejoin:round;stroke-miterlimit:4;stroke-dasharray:none;stroke-opacity:1;enable-background:new"
     inkscape:connector-curvature="0" />
</svg>
